svg/fluentui-system-icons/ic_fluent_options_16_regular.svg

<svg width="16" height="16" viewBox="0 0 16 16" fill="none" xmlns="http://www.w3.org/2000/svg">
<path d="M6 9C6.93191 9 7.71496 9.63738 7.93699 10.5L13.5 10.5C13.7761 10.5 14 10.7239 14 11C14 11.2455 13.8231 11.4496 13.5899 11.4919L13.5 11.5L7.93673 11.501C7.71435 12.3631 6.93155 13 6 13C5.06845 13 4.28565 12.3631 4.06327 11.501L2.5 11.5C2.22386 11.5 2 11.2761 2 11C2 10.7545 2.17688 10.5504 2.41012 10.5081L2.5 10.5L4.06301 10.5C4.28504 9.63738 5.06809 9 6 9ZM6 10C5.44772 10 5 10.4477 5 11C5 11.5523 5.44772 12 6 12C6.55228 12 7 11.5523 7 11C7 10.4477 6.55228 10 6 10ZM10 3C10.9319 3 11.715 3.63738 11.937 4.49998L13.5 4.5C13.7761 4.5 14 4.72386 14 5C14 5.24546 13.8231 5.44961 13.5899 5.49194L13.5 5.5L11.9367 5.50102C11.7144 6.36312 10.9316 7 10 7C9.06845 7 8.28565 6.36312 8.06327 5.50102L2.5 5.5C2.22386 5.5 2 5.27614 2 5C2 4.75454 2.17688 4.55039 2.41012 4.50806L2.5 4.5L8.06301 4.49998C8.28504 3.63738 9.06809 3 10 3ZM10 4C9.44772 4 9 4.44772 9 5C9 5.55228 9.44772 6 10 6C10.5523 6 11 5.55228 11 5C11 4.44772 10.5523 4 10 4Z" fill="#212121"/>
</svg>

<svg xmlns="http://www.w3.org/2000/svg" width="16" height="16"><path d="M6 9a2 2 0 0 1 1.937 1.5H13.5a.5.5 0 0 1 .09.992l-.09.008-5.563.001a2 2 0 0 1-3.874 0L2.5 11.5a.5.5 0 0 1-.09-.992l.09-.008h1.563A2 2 0 0 1 6 9Zm0 1a1 1 0 1 0 0 2 1 1 0 0 0 0-2Zm4-7a2 2 0 0 1 1.937 1.5H13.5a.5.5 0 0 1 .09.992l-.09.008-1.563.001a2 2 0 0 1-3.874 0L2.5 5.5a.5.5 0 0 1-.09-.992L2.5 4.5h5.563A2 2 0 0 1 10 3Zm0 1a1 1 0 1 0 0 2 1 1 0 0 0 0-2Z"/></svg>
